client/src/shared/assets/icons/edit.svg

<svg width="20" height="20" viewBox="0 0 20 20" fill="none" xmlns="http://www.w3.org/2000/svg">
<path d="M6.37492 10.6249L16.6249 0.374929C17.0154 -0.0156012 17.6486 -0.0156012 18.0391 0.374929L19.6249 1.96072C20.0154 2.35124 20.0154 2.98441 19.6249 3.37493L9.37493 13.6249C9.18743 13.8124 8.93303 13.9178 8.66783 13.9178H6.58203C6.30589 13.9178 6.08203 13.6939 6.08203 13.4178V11.332C6.08203 11.0668 6.18739 10.8124 6.37492 10.6249Z" fill="#515153"/>
<path d="M8.08203 1.91782C8.08203 2.47011 7.63432 2.91783 7.08203 2.91783H2.08203V17.9178H17.082V12.9178C17.082 12.3655 17.5297 11.9178 18.082 11.9178C18.6343 11.9178 19.082 12.3655 19.082 12.9178V17.9178C19.082 19.0224 18.1866 19.9178 17.082 19.9178H2.08203C0.977461 19.9178 0.0820312 19.0224 0.0820312 17.9178V2.91783C0.0820312 1.81325 0.977461 0.917816 2.08203 0.917816H7.08203C7.63432 0.917816 8.08203 1.36554 8.08203 1.91782Z" fill="#515153"/>
</svg>

<svg xmlns="http://www.w3.org/2000/svg" fill="currentColor" viewBox="0 0 20 20"><path d="M6.375 10.625 16.625.375a1 1 0 0 1 1.414 0l1.586 1.586a1 1 0 0 1 0 1.414l-10.25 10.25a1 1 0 0 1-.707.293H6.582a.5.5 0 0 1-.5-.5v-2.086a1 1 0 0 1 .293-.707"/><path d="M8.082 1.918a1 1 0 0 1-1 1h-5v15h15v-5a1 1 0 1 1 2 0v5a2 2 0 0 1-2 2h-15a2 2 0 0 1-2-2v-15a2 2 0 0 1 2-2h5a1 1 0 0 1 1 1"/></svg>
